images/works__item_there_img.svg

<svg width="120" height="107" viewBox="0 0 120 107" fill="none" xmlns="http://www.w3.org/2000/svg">
<path id="Combined Shape" fill-rule="evenodd" clip-rule="evenodd" d="M10.1017 80.0273C11.2861 72.498 7.97226 64.7799 4.40643 57.6787C3.94126 56.7531 3.47349 55.8379 3.01189 54.9347C2.03557 53.0245 1.0868 51.1681 0.248388 49.3814C-0.00361418 48.8401 -0.0666148 48.2231 0.0719865 47.6313L2.32741 38.2386C2.54161 37.3321 3.22202 36.6018 4.11662 36.3248C8.94247 34.8139 24.3524 29.3747 25.7384 21.3796C25.7636 21.216 25.8518 21.0775 25.9652 20.9641L39.1071 8.31045C39.4349 7.99568 39.9641 8.03345 40.2539 8.386C41.4887 9.93466 44.9284 13.3845 50.0442 11.6848L48.4564 10.0857C48.1414 9.78357 48.1541 9.27994 48.4692 8.97776L54.4793 3.31193C54.6179 3.17343 54.8069 3.09789 55.0085 3.09789H73.329C73.9844 3.09789 74.3497 3.86592 73.934 4.36955L68.0496 11.5085C67.7599 11.8736 67.8354 12.4024 68.226 12.6543C69.4013 13.4183 71.8455 15.0131 74.4299 16.6995C76.4451 18.0143 78.5455 19.3848 80.1961 20.4605C82.1116 21.707 84.6946 20.9264 85.5638 18.8111C86.5341 16.4567 87.4412 12.7928 87.4538 7.34096C87.4538 7.25283 87.4665 7.1521 87.5042 7.06397L90.0495 0.491606C90.2888 -0.112749 91.1205 -0.175703 91.4481 0.39088C92.6957 2.55649 94.9258 7.1521 94.9258 12.5158L96.1479 11.6344C96.4882 11.3826 96.9669 11.4581 97.2189 11.7855L99.8902 15.2605C100.004 15.4116 100.054 15.6131 100.041 15.8019C99.8649 17.678 99.3736 28.0149 108.458 32.1573C108.622 32.2328 108.761 32.3588 108.836 32.5224L119.924 54.6821C119.975 54.7956 120 54.9088 120 55.0347V64.3645C120 65.7873 119.395 67.1345 118.324 68.0788C113.977 71.9316 102.612 82.6211 101.919 90.0244C101.881 90.4147 101.553 90.7169 101.15 90.7169H81.6075C81.4815 90.7169 81.3554 90.6917 81.242 90.6288C79.982 89.949 73.329 81.2362 71.981 72.7877C71.88 72.1582 71.0864 71.919 70.6454 72.3974L66.273 77.2323C65.8698 77.6855 65.2903 77.9373 64.6854 77.9373C64.0174 77.9373 63.4504 77.4589 63.3373 76.8042C62.8333 73.8578 60.5903 66.1524 51.1907 66.1524C46.1506 66.1524 38.3007 68.0914 31.0179 70.2822C31.0179 70.2822 22.9538 72.8003 16.9939 80.8584C16.7923 81.1354 16.4647 81.2991 16.1119 81.2991H11.1979C10.5175 81.2991 10.0009 80.6947 10.1017 80.0273ZM99.2964 105.171C98.8807 106.795 96.9782 107.525 95.5794 106.581C93.0092 104.844 89.1282 101.809 85.6127 97.3521C85.0962 96.6973 85.5623 95.7279 86.4066 95.7279H100.393C101.06 95.7279 101.539 96.3448 101.375 96.9869L99.2964 105.171Z" fill="#C99B67"/>
</svg>

<svg width="120" height="107" fill="none" xmlns="http://www.w3.org/2000/svg"><path fill-rule="evenodd" clip-rule="evenodd" d="M10.102 80.027c1.184-7.529-2.13-15.247-5.696-22.348-.465-.926-.933-1.841-1.394-2.744-.976-1.91-1.925-3.767-2.764-5.554a2.693 2.693 0 0 1-.176-1.75l2.255-9.392a2.642 2.642 0 0 1 1.79-1.914c4.825-1.511 20.235-6.95 21.621-14.945a.755.755 0 0 1 .227-.416L39.107 8.31a.784.784 0 0 1 1.147.076c1.235 1.549 4.674 4.998 9.79 3.299l-1.588-1.6a.768.768 0 0 1 .013-1.107l6.01-5.666a.743.743 0 0 1 .53-.214h18.32c.655 0 1.02.768.605 1.272l-5.884 7.138a.779.779 0 0 0 .176 1.146c1.175.764 3.62 2.36 6.204 4.046 2.015 1.314 4.115 2.685 5.766 3.76 1.916 1.247 4.499.466 5.368-1.649.97-2.354 1.877-6.018 1.89-11.47a.72.72 0 0 1 .05-.277L90.05.492a.778.778 0 0 1 1.4-.101c1.247 2.165 3.477 6.761 3.477 12.125l1.222-.882a.775.775 0 0 1 1.07.152l2.672 3.475a.82.82 0 0 1 .151.54c-.176 1.877-.667 12.214 8.417 16.356a.759.759 0 0 1 .378.365l11.088 22.16a.836.836 0 0 1 .076.353v9.33c0 1.422-.605 2.77-1.676 3.714-4.347 3.853-15.712 14.542-16.405 21.945a.768.768 0 0 1-.769.693H81.607a.747.747 0 0 1-.365-.088c-1.26-.68-7.913-9.393-9.261-17.841-.101-.63-.895-.869-1.336-.39l-4.372 4.834a2.12 2.12 0 0 1-1.588.705 1.365 1.365 0 0 1-1.348-1.133c-.504-2.946-2.747-10.652-12.146-10.652-5.04 0-12.89 1.94-20.173 4.13 0 0-8.064 2.518-14.024 10.576-.202.277-.53.441-.882.441h-4.914c-.68 0-1.197-.604-1.096-1.272Zm89.194 25.144a2.431 2.431 0 0 1-3.717 1.41c-2.57-1.737-6.45-4.772-9.966-9.229-.517-.655-.05-1.624.794-1.624h13.986c.667 0 1.146.617.982 1.259l-2.079 8.184Z" fill="#C99B67"/></svg>
